src/icons/main-list.svg

<svg enable-background="new 0 0 14 14" viewBox="0 0 14 14" xmlns="http://www.w3.org/2000/svg"><path d="m1.4 10.9c-.8 0-1.4.7-1.4 1.6s.6 1.5 1.4 1.5 1.4-.7 1.4-1.6-.6-1.5-1.4-1.5zm0-5.5c-.8 0-1.4.7-1.4 1.6s.6 1.6 1.4 1.6 1.4-.7 1.4-1.6-.6-1.6-1.4-1.6zm3.5-3.1h8.4c.4 0 .7-.3.7-.7s-.3-.8-.7-.8h-8.4c-.4 0-.7.4-.7.8s.3.7.7.7zm-3.5-2.3c-.8 0-1.4.7-1.4 1.6s.6 1.6 1.4 1.6 1.4-.7 1.4-1.6-.6-1.6-1.4-1.6zm11.9 6.2h-8.4c-.4 0-.7.4-.7.8s.3.8.7.8h8.4c.4 0 .7-.4.7-.8s-.3-.8-.7-.8zm0 5.5h-8.4c-.4 0-.7.3-.7.8 0 .4.3.8.7.8h8.4c.4 0 .7-.4.7-.8 0-.5-.3-.8-.7-.8z" fill="#4d5969"/></svg>

<?xml version="1.0" encoding="utf-8"?>
<!-- Generator: Adobe Illustrator 20.1.0, SVG Export Plug-In . SVG Version: 6.00 Build 0)  -->
<svg version="1.1" id="Layer_1" xmlns="http://www.w3.org/2000/svg" xmlns:xlink="http://www.w3.org/1999/xlink" x="0px" y="0px"
	 viewBox="0 0 14 14" style="enable-background:new 0 0 14 14;" xml:space="preserve">
<style type="text/css">
	.st0{fill:#4D5969;}
</style>
<title>HDL/Icon/Standard/list</title>
<desc>Created with Sketch.</desc>
<g id="Colors">
	<g id="Main-Icons" transform="translate(-122.000000, -1017.000000)">
		<g id="List" transform="translate(101.000000, 1003.000000)">
			<g id="HDL_x2F_Icon_x2F_Standard_x2F_list" transform="translate(21.000000, 14.000000)">
				<path id="Shape" class="st0" d="M1.4,10.9c-0.8,0-1.4,0.7-1.4,1.6S0.6,14,1.4,14s1.4-0.7,1.4-1.6S2.2,10.9,1.4,10.9z M1.4,5.4
					C0.6,5.4,0,6.1,0,7s0.6,1.6,1.4,1.6S2.8,7.9,2.8,7S2.2,5.4,1.4,5.4z M4.9,2.3h8.4C13.7,2.3,14,2,14,1.6s-0.3-0.8-0.7-0.8H4.9
					c-0.4,0-0.7,0.4-0.7,0.8S4.5,2.3,4.9,2.3z M1.4,0C0.6,0,0,0.7,0,1.6s0.6,1.6,1.4,1.6s1.4-0.7,1.4-1.6S2.2,0,1.4,0z M13.3,6.2
					H4.9C4.5,6.2,4.2,6.6,4.2,7s0.3,0.8,0.7,0.8h8.4C13.7,7.8,14,7.4,14,7S13.7,6.2,13.3,6.2z M13.3,11.7H4.9
					c-0.4,0-0.7,0.3-0.7,0.8c0,0.4,0.3,0.8,0.7,0.8h8.4c0.4,0,0.7-0.4,0.7-0.8C14,12,13.7,11.7,13.3,11.7z"/>
			</g>
		</g>
	</g>
</g>
</svg>
